X: 1
T: Tippa   [Bb]
O: trad Finland
Z: John Chambers <jc@trillian.mit.edu>
B: Tanhuvakka S\"avelmist\"o
S: email image from Leila Luopa
M: 3/4
L: 1/8
Q: 1/4=88
K: Bb
% = = = = = = = = = =
"A"|: "Bb"B2 F3 E | D>C B,3 C | DE F2 GA | B2 F2 z2 :|
w: Hei vaan nyt tah-dot-han s\"a k\"ay-d\"a kans-sa-ni leik-kiin.
Q: 1/4=144
"^B"[| "Bb"DE FF FF | "Eb"GF ED E2 | "F7"CD EE EE | "Bb"FE DC D2 |
w: Tip-pa, tip-pa, tip-pa, tip-pa, tip-pa, tei, tip-pa, tip-pa, tip-pa, tip-pa, tip-pa, tei,
| "Bb"B,D FF FF | "Eb"GF ED E2 | "F7"C>D E2 DC | "(Bb)"C2 "Bb"B,2 z2 |]
w: tip-pa, tip-pa, tip-pa, tip-pa, tip-pa, tei k\"ay-d\"a kans-sa-ni leik-kiin.
% = = = = = = = = = =
W:2. En tahdokaan, m\"a tahdon vaan nyt leikitell\"a sun kanssas.
W: Tippa, tippa, ... leikitell\"a sun kanssas.


